printer-pos-sync.svg

<svg fill="currentColor" viewBox="0 0 24 24"><path d="M17 9H7V4h10zm-4 8.5c0 .5.07 1 .18 1.5H4v-7a2 2 0 0 1 2-2h12c.74 0 1.38.41 1.73 1h-.23a6.5 6.5 0 0 0-6.5 6.5M10 12H6v2h4zm9 8a2.5 2.5 0 0 1-2.5-2.5c0-.4.09-.78.26-1.12l-1.09-1.09c-.42.63-.67 1.39-.67 2.21 0 2.21 1.79 4 4 4V23l2.25-2.25L19 18.5zm0-6.5V12l-2.25 2.25L19 16.5V15a2.5 2.5 0 0 1 2.5 2.5c0 .4-.09.78-.26 1.12l1.09 1.09c.42-.63.67-1.39.67-2.21 0-2.21-1.79-4-4-4"/></svg>

<svg  viewBox="0 0 24 24" fill="currentColor"><path  d="M17 9H7V4H17V9M13 17.5C13 18 13.07 18.5 13.18 19H4V12C4 10.9 4.89 10 6 10H18C18.74 10 19.38 10.41 19.73 11C19.65 11 19.58 11 19.5 11C15.91 11 13 13.91 13 17.5M10 12H6V14H10V12M19 20C17.62 20 16.5 18.88 16.5 17.5C16.5 17.1 16.59 16.72 16.76 16.38L15.67 15.29C15.25 15.92 15 16.68 15 17.5C15 19.71 16.79 21.5 19 21.5V23L21.25 20.75L19 18.5V20M19 13.5V12L16.75 14.25L19 16.5V15C20.38 15 21.5 16.12 21.5 17.5C21.5 17.9 21.41 18.28 21.24 18.62L22.33 19.71C22.75 19.08 23 18.32 23 17.5C23 15.29 21.21 13.5 19 13.5Z"/></svg>
